!!!!SEGMENT: pl-wumfc--n68232--001-007_moniuszko-stanislaw--paria-wyciag-fortepianowy-akt-i-obraz-i-scena-ii-recitativo-i-piesn-z-chorem.krn
!!!cenid: 18xx:4137
!!!COM: Moniuszko, Stanisław
!!!COM-rismID: pe30008351
!!!CDT: 1819/05/05-1872/06/04
!!!CNT: Polish
!!!GTL: Paria – wyciąg fortepianowy
!!!OTL: Akt I. Obraz I. Scena II. Recitativo i Pieśń z Chórem
!!!OMV: 007
!!!PDT:
!!!AGN: Secular; Opera
!!!YEC: Copyright 2022 Narodowy Instytut Fryderyka Chopina (https://polishscores.org)
!!!YEM: License CC-BY-4.0 (https://creativecommons.org/licenses/by/4.0)
!!!SMS-siglum: PL-Wumfc
!!!SMS-shelfmark: N68232
!!!SMS-shelfwork: 001-007 G
!!!SMS-variant:
!!!SMS-altvar:
!!!NIFC-rismSourceID: 1001171381
!!!NIFC-rismChildID: 1001171381
!!!NIFC-islandoraID: pl-wumfc:7210
!!!URL-pdf-islandora: https://repozytorium.nifc.pl/islandora/object/pl-wumfc%3A7210/datastream/PDF/view
!!!URL-scan: https://polish.musicsources.pl/pl/lokalizacje/galeria/druki-muzyczne/12634/1 @EN{Scan on Polish Music Sources Website} @PL{Skany w portalu Dziedzictwo Muzyki Polskiej w otwartym dostępie}
!!!IIIF:
!!!ONB-nifc: UWAGA: str. 25-28. Uwaga: proszę w pliku umieszczać obsadę, która występuje tylko w danej części.
!!!AIN: 2 piano 2 vox
!!!key:
**kern	**kern	**fing	**dynam	**kern	**text	**text	**dynam	**kern	**text	**text	**dynam
*part4	*part3	*	*	*part2	*	*	*	*part1	*	*	*
*staff4	*staff3	*	*	*staff2	*	*	*	*staff1	*	*	*
*I"[Piano]	*I"[Piano]	*	*	*I"[CHÓR MŁODZIEŻY]	*	*	*	*I"Neala (Sama) Neala (Sola)	*	*	*
*I'pf	*I'pf	*	*	*I'Coro	*	*	*	*I'N.	*	*	*
*ICklav	*ICklav	*	*	*ICvox	*	*	*	*ICvox	*	*	*
*Ipiano	*Ipiano	*	*	*Ivox	*	*	*	*Ivox	*	*	*
*clefF4	*clefG2	*	*	*clefG2	*	*	*	*clefG2	*	*	*
*k[]	*k[]	*	*	*k[]	*	*	*	*k[]	*	*	*
*A:	*A:	*	*	*A:	*	*	*	*A:	*	*	*
*M4/4	*M4/4	*	*	*M4/4	*	*	*	*M4/4	*	*	*
*met(c)	*met(c)	*	*	*met(c)	*	*	*	*met(c)	*	*	*
=1	=1	=1	=1	=1	=1	=1	=1	=1	=1	=1	=1
!	!	!	!	!	!	!	!	!LO:TX:a:B:t=Lento. Recit.	!	!	!
2CC\ 2GG	2C</ 2c	.	.	1ryy	.	.	.	2r	.	.	.
2r	2r	.	.	.	.	.	.	4g/	Czy-	D'un'	.
.	.	.	.	.	.	.	.	8g/	-ste-	al-	.
.	.	.	.	.	.	.	.	8g/	-go	-ma	.
=2	=2	=2	=2	=2	=2	=2	=2	=2	=2	=2	=2
1r	1r	.	.	1ryy	.	.	.	4.cc\	du-	pu-	.
.	.	.	.	.	.	.	.	8g/	-cha	-ra e	.
.	.	.	.	.	.	.	.	8.g/	wzno-	gra-	.
.	.	.	.	.	.	.	.	16f/	-sić	-ta al	.
.	.	.	.	.	.	.	.	8e/	kor-	ciel	.
.	.	.	.	.	.	.	.	8d/	-ne	la	.
=3	=3	=3	=3	=3	=3	=3	=3	=3	=3	=3	=3
2r	2r	.	.	1ryy	.	.	.	4f/	mo-	vo-	.
.	.	.	.	.	.	.	.	8e/	-dły!..	-ce!	.
.	.	.	.	.	.	.	.	8r	.	.	.
[4BB/ [4E	[4d/ [>4g#X	.	p	.	.	.	.	8r	.	.	.
!	!	!	!	!	!	!	!	!LO:TX:a:i:t=più agitato	!	!	!
.	.	.	.	.	.	.	.	8g#X/	Ach	Ah,	.
8BB/] 8E]	8d/] 8g#]	.	.	.	.	.	.	8g#/	na	tal	.
8r	8r	.	.	.	.	.	.	8a/	te	pen-	.
!!LO:LB:g=original	!	!	!	!	!	!	!	!	!	!
=4	=4	=4	=4	=4	=4	=4	=4	=4	=4	=4	=4
1r	1r	.	.	1ryy	.	.	.	4.cc\	sło-	-sier	.
.	.	.	.	.	.	.	.	8b\	-wa	m'ag-	.
.	.	.	.	.	.	.	.	8.b\	sty-	-ghiac-	.
.	.	.	.	.	.	.	.	16a#X/	-gnie	-cie il	.
.	.	.	.	.	.	.	.	8b\	w pier-	san-	.
.	.	.	.	.	.	.	.	8cc\	-si	-gue in	.
=5	=5	=5	=5	=5	=5	=5	=5	=5	=5	=5	=5
2r	2r	.	.	1ryy	.	.	.	(4ee\	krew,	sen.	.
.	.	.	.	.	.	.	.	8dd\)	.	.	.
.	.	.	.	.	.	.	.	8r	.	.	.
[2AA/ [2F	[2d/ [2a	.	fp	.	.	.	.	8r	.	.	.
.	.	.	.	.	.	.	.	8dd\	Ach	Pa-	.
.	.	.	.	.	.	.	.	[4ff\	drżę	-ven-	.
=6	=6	=6	=6	=6	=6	=6	=6	=6	=6	=6	=6
4AA/] 4F]	4d/] 4a]	.	.	1ryy	.	.	.	4ff\]	.	.	.
4r	4r	.	.	.	.	.	.	4ee\	by	-to	.
2r	2r	.	.	.	.	.	.	8.dd\	gro-	che il	.
.	.	.	.	.	.	.	.	16a/	-mów	fu-	.
.	.	.	.	.	.	.	.	8.f/	nie	-ror	.
.	.	.	.	.	.	.	.	16g/	przy-	di	.
!!LO:LB:g=original	!	!	!	!	!	!	!	!	!	!
=7||	=7||	=7||	=7||	=7||	=7||	=7||	=7||	=7||	=7||	=7||	=7||
*M6/8	*M6/8	*	*	*M6/8	*	*	*	*M6/8	*	*	*
*^	*^	*	*	*	*	*	*	*	*	*	*
!LO:TX:a:t=Q.	!	!LO:TX:b:t=Fag.	!	!	!	!	!	!	!	!LO:TX:B:a:t=Tempo I.	!	!	!
([4.A/	[2.AA\ [2.E	8r	[2.c\	.	.	2.ryy	.	.	.	4.a/	-wio-	vin	.
.	.	8r	.	.	.	.	.	.	.	.	.	.	.
.	.	8a'/	.	.	.	.	.	.	.	.	.	.	.
.	.	8qb/	.	.	.	.	.	.	.	.	.	.	.
4A/]	.	(4a^/	.	.	.	.	.	.	.	4e/	-dły	Su	.
8G#X/)	.	8g#X/)	.	.	.	.	.	.	.	8e/	te	me	.
=8	=8	=8	=8	=8	=8	=8	=8	=8	=8	=8	=8	=8	=8
([4.A/	2.AA\_ 2.E_	8a/	2.c\_	.	.	2.ryy	.	.	.	[4.a/	my-	piom-	.
.	.	8r	.	.	.	.	.	.	.	.	.	.	.
.	.	8a'/	.	.	.	.	.	.	.	.	.	.	.
.	.	8qb/	.	.	.	.	.	.	.	.	.	.	.
4A/]	.	(4a^/	.	.	.	.	.	.	.	4a/]	.	.	.
8A-/)	.	8a-X/)	.	.	.	.	.	.	.	8a-X/	-śli	-bi a-	.
=9	=9	=9	=9	=9	=9	=9	=9	=9	=9	=9	=9	=9	=9
!LO:TX:a:t=Fag.	!	!	!	!	!	!	!	!	!	!	!	!	!
([4.G/	2.AA\_ 2.E]	8g/	2.c\_	.	.	2.ryy	.	.	.	8g/	stra-	-tro-	.
.	.	8r	.	.	.	.	.	.	.	8g/	-szne.	-ce!	.
.	.	8g'/	.	.	.	.	.	.	.	8r	.	.	.
.	.	8qa/	.	.	.	.	.	.	.	.	.	.	.
4G/]	.	(4g^/	.	.	.	.	.	.	.	4r	.	.	.
8G-X/)	.	8g-X/)	.	.	.	.	.	.	.	8r	.	.	.
=10	=10	=10	=10	=10	=10	=10	=10	=10	=10	=10	=10	=10	=10
([4.F/	2.AA\]	8f/	2.c\_	.	.	2.ryy	.	.	.	2.r	.	.	.
.	.	8r	.	.	.	.	.	.	.	.	.	.	.
.	.	8f'/	.	.	.	.	.	.	.	.	.	.	.
.	.	8qgn/	.	.	.	.	.	.	.	.	.	.	.
8F/]	.	(4f^/	.	.	.	.	.	.	.	.	.	.	.
4E/)	.	.	.	.	.	.	.	.	.	.	.	.	.
.	.	8e/)	.	.	.	.	.	.	.	.	.	.	.
*v	*v	*	*	*	*	*	*	*	*	*	*	*	*
=11	=11	=11	=11	=11	=11	=11	=11	=11	=11	=11	=11	=11
((2.AA/ 2.F#X	(2.d/	8c\]	4	.	2.ryy	.	.	.	2.r	.	.	.
.	.	8r	.	.	.	.	.	.	.	.	.	.
.	.	8c'\	.	.	.	.	.	.	.	.	.	.
.	.	8qdn/	.	.	.	.	.	.	.	.	.	.
.	.	(4c^\	.	.	.	.	.	.	.	.	.	.
.	.	8B\)	.	.	.	.	.	.	.	.	.	.
!!LO:LB:g=original	!	!	!	!	!	!	!	!	!	!	!	!
=12	=12	=12	=12	=12	=12	=12	=12	=12	=12	=12	=12	=12
2.AA-X/)) 2.F	2.e-X/)	8c\	.	.	2.ryy	.	.	.	4.cc\	O	Gia	.
.	.	8r	.	.	.	.	.	.	.	.	.	.
!	!	!	!	!	!	!	!	!	!	!	!	!LO:HP:a
.	.	8c\	.	.	.	.	.	.	.	.	.	<
.	.	8qd/	.	.	.	.	.	.	.	.	.	.
.	.	(4c^\	.	.	.	.	.	.	4cc\	stra-	dei	[[
.	.	8B\)	.	.	.	.	.	.	8dd\	-szne	ri-	.
*	*v	*v	*	*	*	*	*	*	*	*	*	*
=13||	=13||	=13||	=13||	=13||	=13||	=13||	=13||	=13||	=13||	=13||	=13||
*M4/4	*M4/4	*	*	*M4/4	*	*	*	*M4/4	*	*	*
*met(c)	*met(c)	*	*	*met(c)	*	*	*	*met(c)	*	*	*
[4GG/ [4G	[4c/ [4e-X	.	sf >	1ryy	.	.	.	4.ee-X^\	my-	-mor-	.
8GG/] 8G]	8c/] 8e-]	.	.	.	.	.	.	.	.	.	.
8r	8r	.	]	.	.	.	.	8cc\	-śli,	-si	.
2r	2r	.	.	.	.	.	.	8.cc\	jak	ro-	.
.	.	.	.	.	.	.	.	16cc\	ży-	-de-	.
.	.	.	.	.	.	.	.	8.cc\	-wio-	-mi il	.
.	.	.	.	.	.	.	.	16b\	-łów	ve-	.
=14	=14	=14	=14	=14	=14	=14	=14	=14	=14	=14	=14
*M6/8	*M6/8	*	*	*M6/8	*	*	*	*M6/8	*	*	*
8r	[2.A-X/ [2.B [2.d	.	pp	2.ryy	.	.	.	4dd\	moc!	-len!	.
8r	.	.	.	.	.	.	.	.	.	.	.
8FF/	.	.	.	.	.	.	.	8r	.	.	.
8qGG/	.	.	.	.	.	.	.	.	.	.	.
(4FF^/	.	.	.	.	.	.	.	4r	.	.	.
8EE/	.	.	.	.	.	.	.	8r	.	.	.
=15	=15	=15	=15	=15	=15	=15	=15	=15	=15	=15	=15
8FF/)	2.A-/_ 2.B_ 2.d_	.	.	2.ryy	.	.	.	4r	.	.	.
8r	.	.	.	.	.	.	.	.	.	.	.
8FF/	.	.	.	.	.	.	.	8r	.	.	.
(4FF^/	.	.	.	.	.	.	.	4r	.	.	.
8EE/	.	.	.	.	.	.	.	8dd\	I	Son	.
!!LO:LB:g=original	!	!	!	!	!	!	!	!	!	!	!
=16||	=16||	=16||	=16||	=16||	=16||	=16||	=16||	=16||	=16||	=16||	=16||
*M4/4	*M4/4	*	*	*M4/4	*	*	*	*M4/4	*	*	*
*met(c)	*met(c)	*	*	*met(c)	*	*	*	*met(c)	*	*	*
4FF/)	4A-/] 4B] 4d]	.	.	1ryy	.	.	.	(4ff\	jaż	io,	.
4r	4r	.	.	.	.	.	.	8ee-X\)	.	.	.
!	!	!	!	!	!	!	!	!LO:TX:a:t=Recit.	!	!	!
.	.	.	.	.	.	.	.	8dd\	to	del	.
2r	2r	.	.	.	.	.	.	4cc\	je-	tem-	.
.	.	.	.	.	.	.	.	4b\	-stem	-pio	.
=17	=17	=17	=17	=17	=17	=17	=17	=17	=17	=17	=17
1r	1r	.	.	1ryy	.	.	.	8b\	pier-	fra	.
.	.	.	.	.	.	.	.	8cc\	-wszą	le an-	.
.	.	.	.	.	.	.	.	8cc#X\	śród	-cel-	.
.	.	.	.	.	.	.	.	8dd\	Ka-	-le	.
.	.	.	.	.	.	.	.	4dd\	-pła-	pri-	.
.	.	.	.	.	.	.	.	8f/	-nek?	-ma?	.
.	.	.	.	.	.	.	.	8r	.	.	.
=18	=18	=18	=18	=18	=18	=18	=18	=18	=18	=18	=18
1r	1r	.	.	1ryy	.	.	.	8f/	Ja	che	.
.	.	.	.	.	.	.	.	4g/	któ-	del	.
.	.	.	.	.	.	.	.	8a-X/	-rą	do-	.
.	.	.	.	.	.	.	.	4.a-/	ziem-	-ver	.
.	.	.	.	.	.	.	.	8g/	-ska	in-	.
!!LO:LB:g=original	!	!	!	!	!	!	!	!	!	!	!
=19	=19	=19	=19	=19	=19	=19	=19	=19	=19	=19	=19
2r	2r	.	.	1ryy	.	.	.	8.b-X\	o-	-cau-	.
.	.	.	.	.	.	.	.	16a-X/	-wła-	-ta	.
.	.	.	.	.	.	.	.	8g/	-dnę-	mi	.
.	.	.	.	.	.	.	.	8f/	-ła	scor-	.
!	!LO:TX:a:t=Moderato.	!	!	!	!	!	!	!	!	!	!
4CC/ 4C	4G/ 4c 4e-X	.	f	.	.	.	.	4e-X/	moc!	-dai!	.
8CC/L 8C	8c/L 8e- 8g	.	.	.	.	.	.	4r	.	.	.
8CC/J 8C	8e-/J 8g 8cc	.	.	.	.	.	.	.	.	.	.
=20	=20	=20	=20	=20	=20	=20	=20	=20	=20	=20	=20
2CC/ 2C	2g\ 2cc 2ee-X	.	.	1ryy	.	.	.	2r	.	.	.
2r	2r	.	.	.	.	.	.	4e-X/	Ja	Ces-	.
.	.	.	.	.	.	.	.	8g/	któ-	-si a	.
.	.	.	.	.	.	.	.	8cc\	-rej	u na	.
=21	=21	=21	=21	=21	=21	=21	=21	=21	=21	=21	=21
1r	1r	.	.	1ryy	.	.	.	4.ee-X\	du-	vo-	.
.	.	.	.	.	.	.	.	8bn\	-szę	-ce	.
.	.	.	.	.	.	.	.	8dd\	ja-	che	.
.	.	.	.	.	.	.	.	8cc\	-sny	d'a-	.
.	.	.	.	.	.	.	.	8.g/	ten	-mar	.
.	.	.	.	.	.	.	.	16f/	po-	m'in-	.
!!LO:LB:g=original	!	!	!	!	!	!	!	!	!	!	!
=22	=22	=22	=22	=22	=22	=22	=22	=22	=22	=22	=22
!	!	!	!	!	!	!	!	!LO:TX:a:B:t=Lento.	!	!	!
*tremolo	*tremolo	*	*	*	*	*	*	*	*	*	*
(32c\LLL	32e-X/LLL	.	pp	1ryy	.	.	.	4f/	-ra-	-ti-	.
32B\	32g/	.	.	.	.	.	.	.	.	.	.
32c\	32e-/	.	.	.	.	.	.	.	.	.	.
32B\	32g/	.	.	.	.	.	.	.	.	.	.
32c\	32e-/	.	.	.	.	.	.	.	.	.	.
32B\	32g/	.	.	.	.	.	.	.	.	.	.
32c\	32e-/	.	.	.	.	.	.	.	.	.	.
32B\	32g/	.	.	.	.	.	.	.	.	.	.
32c\	32e-/	.	.	.	.	.	.	8e-X/	-nek	-ma,	.
32B\	32g/	.	.	.	.	.	.	.	.	.	.
32c\	32e-/	.	.	.	.	.	.	.	.	.	.
32B\	32g/	.	.	.	.	.	.	.	.	.	.
32c\	32e-/	.	.	.	.	.	.	8r	.	.	.
32B\	32g/	.	.	.	.	.	.	.	.	.	.
32c\	32e-/	.	.	.	.	.	.	.	.	.	.
32B\JJJ	32g/JJJ	.	.	.	.	.	.	.	.	.	.
32c\LLL	32e-/LLL	.	.	.	.	.	.	4g/	Wię-	ma	.
32B\	32g/	.	.	.	.	.	.	.	.	.	.
32c\	32e-/	.	.	.	.	.	.	.	.	.	.
32B\	32g/	.	.	.	.	.	.	.	.	.	.
32c\	32e-/	.	.	.	.	.	.	.	.	.	.
32B\	32g/	.	.	.	.	.	.	.	.	.	.
32c\	32e-/	.	.	.	.	.	.	.	.	.	.
32B\	32g/	.	.	.	.	.	.	.	.	.	.
32c\	32e-/	.	.	.	.	.	.	8cc\	-cej	piu	.
32B\	32g/	.	.	.	.	.	.	.	.	.	.
32c\	32e-/	.	.	.	.	.	.	.	.	.	.
32B\	32g/	.	.	.	.	.	.	.	.	.	.
32c\	32e-/	.	.	.	.	.	.	8ee-X\	za-	del	.
32B\	32g/	.	.	.	.	.	.	.	.	.	.
32c\	32e-/	.	.	.	.	.	.	.	.	.	.
32B\JJJ)	32g/JJJ	.	.	.	.	.	.	.	.	.	.
=23	=23	=23	=23	=23	=23	=23	=23	=23	=23	=23	=23
32c\LLL	32e-X/LLL	.	.	1ryy	.	.	.	4.gg\	-trwa-	cor	.
32B\	32g/	.	.	.	.	.	.	.	.	.	.
32c\	32e-/	.	.	.	.	.	.	.	.	.	.
32B\	32g/	.	.	.	.	.	.	.	.	.	.
32c\	32e-/	.	.	.	.	.	.	.	.	.	.
32B\	32g/	.	.	.	.	.	.	.	.	.	.
32c\	32e-/	.	.	.	.	.	.	.	.	.	.
32B\	32g/	.	.	.	.	.	.	.	.	.	.
32c\	32e-/	.	.	.	.	.	.	.	.	.	.
32B\	32g/	.	.	.	.	.	.	.	.	.	.
32c\	32e-/	.	.	.	.	.	.	.	.	.	.
32B\	32g/	.	.	.	.	.	.	.	.	.	.
32c\	32e-/	.	.	.	.	.	.	8ff\	-ża	la	.
32B\	32g/	.	.	.	.	.	.	.	.	.	.
32c\	32e-/	.	.	.	.	.	.	.	.	.	.
32B\JJJ	32g/JJJ	.	.	.	.	.	.	.	.	.	.
32c\LLL	32e-/LLL	.	.	.	.	.	.	8.ee-X\	niż	pa-	.
32B\	32g/	.	.	.	.	.	.	.	.	.	.
32c\	32e-/	.	.	.	.	.	.	.	.	.	.
32B\	32g/	.	.	.	.	.	.	.	.	.	.
32c\	32e-/	.	.	.	.	.	.	.	.	.	.
32B\	32g/	.	.	.	.	.	.	.	.	.	.
32c\	32e-/	.	.	.	.	.	.	16dd\	wy-	-ce	.
32B\JJJ	32g/	.	.	.	.	.	.	.	.	.	.
32c\	32e-/	.	.	.	.	.	.	8.cc\	-stę-	non	.
32r	32g/	.	.	.	.	.	.	.	.	.	.
16r	32e-/	.	.	.	.	.	.	.	.	.	.
.	32g/	.	.	.	.	.	.	.	.	.	.
8r	32e-/	.	.	.	.	.	.	.	.	.	.
.	32g/	.	.	.	.	.	.	.	.	.	.
.	32e-/	.	.	.	.	.	.	16b-X\	-pnych	tro-	.
.	32g/JJJ	.	.	.	.	.	.	.	.	.	.
=24	=24	=24	=24	=24	=24	=24	=24	=24	=24	=24	=24
*^	*^	*	*	*	*	*	*	*	*	*	*
!	!	!	!	!	!	!	!	!	!	!LO:TX:B:a:t=Allegro im petuoso.	!	!	!
[1F#X	(4.E-X^\	[1a	8.rc	.	ff	1ryy	.	.	.	4a/	noc?!	-vai!	.
.	.	.	(>32B\LLL	.	.	.	.	.	.	.	.	.	.
.	.	.	32c\JJJ	.	.	.	.	.	.	.	.	.	.
.	.	.	[4e-X^\)	.	.	.	.	.	.	4r	.	.	.
.	8C\	.	.	.	.	.	.	.	.	.	.	.	.
.	4.E-^\	.	8.e-\L]	.	.	.	.	.	.	2r	.	.	.
.	.	.	(>32d\LL	.	.	.	.	.	.	.	.	.	.
.	.	.	32c\JJJ	.	.	.	.	.	.	.	.	.	.
.	.	.	[4e-^\)	.	.	.	.	.	.	.	.	.	.
.	8C\)	.	.	.	.	.	.	.	.	.	.	.	.
!!LO:LB:g=original	!	!	!	!	!	!	!	!	!	!	!	!	!
=25	=25	=25	=25	=25	=25	=25	=25	=25	=25	=25	=25	=25	=25
1F#]	4..E-X\	1a]	(8.e-X\L]	.	.	1ryy	.	.	.	1ryy	.	.	.
.	.	.	32d\LL	.	.	.	.	.	.	.	.	.	.
.	.	.	32c\JJJ	.	.	.	.	.	.	.	.	.	.
.	.	.	8.c^\L	.	.	.	.	.	.	.	.	.	.
.	32D\LLL	.	32B\LL	.	.	.	.	.	.	.	.	.	.
.	32C\JJJ	.	32c\JJJ)	.	.	.	.	.	.	.	.	.	.
.	8.C^\L	.	(8.e-^\L	.	.	.	.	.	.	.	.	.	.
.	16E-\K	.	32d\LL	.	.	.	.	.	.	.	.	.	.
.	.	.	32c\JJJ)	.	.	.	.	.	.	.	.	.	.
.	8.C^\	.	(8.e-^\L	.	.	.	.	.	.	.	.	.	.
.	16E-\Jk	.	32d\LL	.	.	.	.	.	.	.	.	.	.
.	.	.	32c\JJJ)	.	.	.	.	.	.	.	.	.	.
=26	=26	=26	=26	=26	=26	=26	=26	=26	=26	=26	=26	=26	=26
!	!	!	!LO:N:vis=4..	!	!	!	!	!	!	!	!	!	!
1En 1G	4ryy	8.r	4.c#X^\	.	.	1ryy	.	.	.	1ryy	.	.	.
.	.	(32g#X/LLL	.	.	.	.	.	.	.	.	.	.	.
.	.	32a/JJJ	.	.	.	.	.	.	.	.	.	.	.
.	8ryy	4cc#X^/)	.	.	.	.	.	.	.	.	.	.	.
.	16ryy	.	8ryy	.	.	.	.	.	.	.	.	.	.
.	(>32G#X/LLL	.	.	.	.	.	.	.	.	.	.	.	.
.	32A/JJJ	.	.	.	.	.	.	.	.	.	.	.	.
.	4..c#X^/)	(8.cc#\L	2ryy	.	.	.	.	.	.	.	.	.	.
.	.	32b\LL	.	.	.	.	.	.	.	.	.	.	.
.	.	32a\JJJ	.	.	.	.	.	.	.	.	.	.	.
.	.	[4ee^\)	.	.	.	.	.	.	.	.	.	.	.
.	(>32B/LLL	.	.	.	.	.	.	.	.	.	.	.	.
.	32c#/JJJ	.	.	.	.	.	.	.	.	.	.	.	.
*v	*v	*	*	*	*	*	*	*	*	*	*	*	*
*	*v	*v	*	*	*	*	*	*	*	*	*	*
=27	=27	=27	=27	=27	=27	=27	=27	=27	=27	=27	=27
(4..e^>/)	8.ee\L]	.	.	1ryy	.	.	.	1ryy	.	.	.
.	(32dd\LL	.	.	.	.	.	.	.	.	.	.
.	32cc#X\JJJ	.	.	.	.	.	.	.	.	.	.
.	([4bb-X^\)	.	.	.	.	.	.	.	.	.	.
32d/LLL	.	.	.	.	.	.	.	.	.	.	.
32c#X/JJJ)	.	.	.	.	.	.	.	.	.	.	.
8g/	8.bb-\L]	.	.	.	.	.	.	.	.	.	.
8r	.	.	.	.	.	.	.	.	.	.	.
.	32aa\LL	.	.	.	.	.	.	.	.	.	.
.	32gg\JJJ)	.	.	.	.	.	.	.	.	.	.
4E^\ 4B-X 4c#	(8.gg^\L	.	.	.	.	.	.	.	.	.	.
.	32ff\LL	.	.	.	.	.	.	.	.	.	.
.	32ee\JJJ)	.	.	.	.	.	.	.	.	.	.
!!LO:PB:g=original	!	!	!	!	!	!	!	!	!	!	!
=28	=28	=28	=28	=28	=28	=28	=28	=28	=28	=28	=28
8F\ 8A 8d	8dd\L	.	.	1ryy	.	.	.	2r	.	.	.
16r	16r	.	.	.	.	.	.	.	.	.	.
16FF/ 16D 16F	16a\Jk 16dd 16aa	.	f	.	.	.	.	.	.	.	.
4FF/ 4D 4F	4a^<\ 4dd 4aa	.	.	.	.	.	.	.	.	.	.
2r	2r	.	.	.	.	.	.	4dd\	Słoń-	So-	.
.	.	.	.	.	.	.	.	8a/	-ce!	-le!	.
.	.	.	.	.	.	.	.	16r	.	.	.
.	.	.	.	.	.	.	.	16dd\	u-	l'ar-	.
=29	=29	=29	=29	=29	=29	=29	=29	=29	=29	=29	=29
1r	1r	.	.	1ryy	.	.	.	4.ff\	-sza-	-can	.
.	.	.	.	.	.	.	.	8cc#X\	-nuj	de'	.
.	.	.	.	.	.	.	.	8.ee\	ta-	miei	.
.	.	.	.	.	.	.	.	16dd\	-je-	pen-	.
.	.	.	.	.	.	.	.	8a/	-mni-	-sier	.
.	.	.	.	.	.	.	.	8g/	-cę	t'e	.
=30	=30	=30	=30	=30	=30	=30	=30	=30	=30	=30	=30
1r	1r	.	.	1ryy	.	.	.	4g/	mo-	no-	.
.	.	.	.	.	.	.	.	4f/	-ją!	-to!	.
.	.	.	.	.	.	.	.	8r	.	.	.
.	.	.	.	.	.	.	.	8a/	Niech	Pos-	.
.	.	.	.	.	.	.	.	8dd\	twe	-sa il	.
.	.	.	.	.	.	.	.	8ff\	pro-	tuo	.
!!LO:LB:g=original	!	!	!	!	!	!	!	!	!	!	!
=31	=31	=31	=31	=31	=31	=31	=31	=31	=31	=31	=31
[4D\ [4F [4A [4d	[4a\ [>4dd [4ff [4aa	.	ff	1ryy	.	.	.	4.aa\	-mie-	rag-	.
8D\] 8F] 8A] 8d]	8a\] 8dd] 8ff] 8aa]	.	.	.	.	.	.	.	.	.	.
8r	8r	.	.	.	.	.	.	8ff\	-nie	-gio	.
2r	2r	.	.	.	.	.	.	8ee\	śród	dis-	.
.	.	.	.	.	.	.	.	8dd\	cie-	-si-	.
.	.	.	.	.	.	.	.	8.a/	-ni-	-par-	.
.	.	.	.	.	.	.	.	16f/	-stych	-ne il	.
=32	=32	=32	=32	=32	=32	=32	=32	=32	=32	=32	=32
!	!	!	!	!	!	!	!	!LO:TX:a:i:t=a tempo	!	!	!
2r	2r	.	.	1ryy	.	.	.	4d/	dróg	vel!	.
.	.	.	.	.	.	.	.	4r	.	.	.
!	!LO:TX:b:t=Q.	!	!	!	!	!	!	!LO:TX:a:B:t=Moderato.	!	!	!
2G\ 2B-X	2d/ 2e	.	fp	.	.	.	.	4dd\	Ser-	Ren-	.
.	.	.	.	.	.	.	.	8.dd\	-ce	-der	.
.	.	.	.	.	.	.	.	16dd\	znę-	tu	.
=33	=33	=33	=33	=33	=33	=33	=33	=33	=33	=33	=33
2F\ 2G	2B-X/ 2d	.	fp	1ryy	.	.	.	4.dd\	-ka-	puoi	.
.	.	.	.	.	.	.	.	8dd\	-ne	la	.
2A\ 2B-X	2d/ 2f	.	fp	.	.	.	.	8dd\	świę-	pa-	.
.	.	.	.	.	.	.	.	8dd\	-tym	-ce a	.
.	.	.	.	.	.	.	.	8dd\	blas-	un cor	.
.	.	.	.	.	.	.	.	8dd\	-kiem	de-	.
!!LO:LB:g=original	!	!	!	!	!	!	!	!	!	!	!
=34	=34	=34	=34	=34	=34	=34	=34	=34	=34	=34	=34
2G\ 2B-X	2d/ 2e	.	fp	1r	.	.	.	4ee\	zbro-	-vo-	.
.	.	.	.	.	.	.	.	8dd\	-ją	-to,	.
.	.	.	.	.	.	.	.	8r	.	.	.
2B-\ 2d	2e/ 2g	.	fp	.	.	.	.	4dd\	i	che	.
.	.	.	.	.	.	.	.	8dd\	wró-	con-	.
.	.	.	.	.	.	.	.	8dd\	-cą	-sa-	.
=35	=35	=35	=35	=35	=35	=35	=35	=35	=35	=35	=35
[4A\	[4d/ [4f	.	fp	1r	.	.	.	4.ff\	w gro-	-crar-	.
8A\]	8d/] 8f]	.	.	.	.	.	.	.	.	.	.
8r	8r	.	.	.	.	.	.	8dd\	-no	-si a-	.
!	!	!	!	!	!	!	!	!LO:TX:i:a:t=rallent.	!	!	!
2r	2r	.	.	.	.	.	.	8.a/	wier-	-vea	.
.	.	.	.	.	.	.	.	16f/	-nych	giu-	.
.	.	.	.	.	.	.	.	8.e/	bo-	-ra-	.
.	.	.	.	.	.	.	.	16d/	-gom	-to al	.
=36||	=36||	=36||	=36||	=36||	=36||	=36||	=36||	=36||	=36||	=36||	=36||
*k[f#c#g#]	*k[f#c#g#]	*	*	*k[f#c#g#]	*	*	*	*k[f#c#g#]	*	*	*
*M3/4	*M3/4	*	*	*M3/4	*	*	*	*M3/4	*	*	*
!	!LO:TX:b:t=2 Arpe.	!	!	!LO:TX:a:t=CHÓR MŁODZIEŻY (za sceną; z początku pp, ale do końca strofy zbliżając się do sceny) srescendo.	!	!	!	!LO:TX:a:B:t=Allegretto.	!	!	!
!	!	!	!	!LO:TX:a:i:t=CORO DI GIOVANI (oltre la scena. Dopprincipio pp, e verso il fine della strofa avvicinandosi sempre piu crescendo).	!	!	!	!	!	!	!
4AA::\ 4E:: 4A::	8c#::/L 8e::	.	p	2ee\	Słoń-	So-	.	4a/	sług.	ciel.	.
!	!LO:TX:b:i:t=arpeggiando	!	!	!	!	!	!	!	!	!	!
.	8e/J 8a 8cc#	.	.	.	.	.	.	.	.	.	.
4AA\ 4E 4A	8c#/L 8e	.	.	.	.	.	.	4r	.	.	.
.	8e/J 8a 8cc#	.	.	.	.	.	.	.	.	.	.
4AA\ 4E 4A	8c#/L 8e	.	.	8cc#\	-ce	-le,	.	4r	.	.	.
.	8e/J 8a 8cc#	.	.	8cc#\	wspa-	del	.	.	.	.	.
=37	=37	=37	=37	=37	=37	=37	=37	=37	=37	=37	=37
4AA::\ 4E:: 4A::	8c#::/L 8e::	.	.	2a/	-nia-	mon-	.	2.r	.	.	.
.	8e/J 8a 8cc#	.	.	.	.	.	.	.	.	.	.
4AA\ 4E 4A	8c#/L 8e	.	.	.	.	.	.	.	.	.	.
.	8e/J 8a 8cc#	.	.	.	.	.	.	.	.	.	.
4AA\ 4E 4A	8c#/L 8e	.	.	4cc#\	-łe,	-do	.	.	.	.	.
.	8e/J 8a 8cc#	.	.	.	.	.	.	.	.	.	.
!!LO:LB:g=original	!	!	!	!	!	!	!	!	!	!	!
=38	=38	=38	=38	=38	=38	=38	=38	=38	=38	=38	=38
4AA\ 4E 4A	8c#/L 8e	.	.	2cc#\	twój	lu-	.	2.ryy	.	.	.
.	8e/J 8a 8cc#	.	.	.	.	.	.	.	.	.	.
4AA\ 4E 4A	8c#/L 8e	.	.	.	.	.	.	.	.	.	.
.	8e/J 8a 8cc#	.	.	.	.	.	.	.	.	.	.
4AA\ 4E 4A	8d/L 8f#	.	.	8dd\	swię-	-ce e	.	.	.	.	.
.	8f#/J 8dd	.	.	8ff#\	-ty	te-	.	.	.	.	.
=39	=39	=39	=39	=39	=39	=39	=39	=39	=39	=39	=39
4AA\ 4E 4A	8c#/L 8e	.	.	2ee\	blask	-por!	.	2.ryy	.	.	.
.	8e/J 8a 8cc#	.	.	.	.	.	.	.	.	.	.
4AA\ 4E 4A	8c#/L 8e	.	.	.	.	.	.	.	.	.	.
.	8e/J 8a 8cc#	.	.	.	.	.	.	.	.	.	.
4AA\ 4E 4A	8c#/L 8e	.	.	4ee\	W mi-	D'un	.	.	.	.	.
.	8e/J 8a 8cc#	.	.	.	.	.	.	.	.	.	.
=40	=40	=40	=40	=40	=40	=40	=40	=40	=40	=40	=40
4DD/ 4D	8B/L 8e 8g#	.	.	4ff#\	-lo-	rag-	.	2.ryy	.	.	.
.	8e/J 8g# 8b	.	.	.	.	.	.	.	.	.	.
4DD/ 4D	8B/L 8e 8g#	.	.	8ee\	-ści	-gio	.	.	.	.	.
.	8e/J 8g# 8b	.	.	8dd\	ma	fe-	.	.	.	.	.
4DD/ 4D	8B/L 8e 8g#	.	.	8b\	chwa-	-con-	.	.	.	.	.
.	8e/J 8g# 8b 8ee	.	.	8g#/	-łę	-do a	.	.	.	.	.
=41	=41	=41	=41	=41	=41	=41	=41	=41	=41	=41	=41
4CC#/ 4C#	8A/L 8e	.	.	2a/	naj-	noi	.	2.ryy	.	.	.
.	8c#/J 8e 8a	.	.	.	.	.	.	.	.	.	.
4AA\ 4E 4A	8c#/L 8e	.	.	.	.	.	.	.	.	.	.
.	8e/J 8a 8cc#	.	.	.	.	.	.	.	.	.	.
4AA\ 4E 4A	8c#/L 8e	.	.	8cc#\L	-wznio-	con-	.	.	.	.	.
.	8e/J 8a 8cc# 8ee	.	.	8ee\J	.	.	.	.	.	.	.
=42	=42	=42	=42	=42	=42	=42	=42	=42	=42	=42	=42
4BB\ 4E 4G#	8B/L 8e 8g#	.	.	2ee\	-ślej-	-ce-	.	2.ryy	.	.	.
.	8e/J 8g# 8b	.	.	.	.	.	.	.	.	.	.
4BB\ 4E 4G#	8B/L 8e 8g#	.	.	.	.	.	.	.	.	.	.
.	8e/J 8g# 8b	.	.	.	.	.	.	.	.	.	.
4BB\ 4F#	8B/L 8d#X 8a	.	.	8dd#X\	-szą	-di il	.	.	.	.	.
.	8d#/J 8f# 8b	.	.	8b\	z twych	fa-	.	.	.	.	.
!!LO:PB:g=original	!	!	!	!	!	!	!	!	!	!	!
=43	=43	=43	=43	=43	=43	=43	=43	=43	=43	=43	=43
4E\ 4G#	8B/L 8e 8g#	.	.	2ee\	łask.	-vor.	.	2.ryy	.	.	.
.	8e/J 8g# 8b	.	.	.	.	.	.	.	.	.	.
4E\ 4G#	8B/L 8e 8g#	.	.	.	.	.	.	.	.	.	.
.	8e/J 8g# 8b	.	.	.	.	.	.	.	.	.	.
4E\ 4G#	8B/L 8e 8g#	.	.	4r	.	.	.	.	.	.	.
.	8e/J 8g# 8b	.	.	.	.	.	.	.	.	.	.
=44	=44	=44	=44	=44	=44	=44	=44	=44	=44	=44	=44
*	*	*	*	*^	*	*	*	*	*	*	*
4EE/ 4BB 4E	8B/L 8e 8g#	.	sf	2ee\	2ryy	Na	Tu al-	.	2.ryy	.	.	.
.	8e/J 8g# 8b	.	.	.	.	.	.	.	.	.	.	.
4E\ 4B	8e/L 8g# 8b	.	.	.	.	.	.	.	.	.	.	.
.	8g#/J 8b 8ee	.	.	.	.	.	.	.	.	.	.	.
4E\ 4B	8e/L 8g#	.	.	8b/L	8b\	ko-	-le	.	.	.	.	.
.	8e/J 8g# 8b	.	.	8cc#/J	8cc#\	.	co-	.	.	.	.	.
=45	=45	=45	=45	=45	=45	=45	=45	=45	=45	=45	=45	=45
4EE/ 4BB 4E	8B/L 8e 8g#	.	sf	2dd\	2ryy	-chan-	-rol-	.	2.ryy	.	.	.
.	8e/J 8g# 8b	.	.	.	.	.	.	.	.	.	.	.
4E\ 4B	8e/L 8g#	.	.	.	.	.	.	.	.	.	.	.
.	8e/J 8g# 8b	.	.	.	.	.	.	.	.	.	.	.
4E\ 4B	8e/L 8g#	.	.	8cc#/L	8cc#\	-ki	-le	.	.	.	.	.
.	8e/J 8g# 8b	.	.	8dd/J	8dd\	.	dei	.	.	.	.	.
*	*	*	*	*v	*v	*	*	*	*	*	*	*
=46	=46	=46	=46	=46	=46	=46	=46	=46	=46	=46	=46
4EE/ 4BB 4E	8e/L 8g# 8b	.	.	4ff#\	skroń	fior	.	2.ryy	.	.	.
.	8e/J 8g# 8b 8dd	.	.	.	.	.	.	.	.	.	.
4EE/ 4BB 4E	8B/L 8e 8g#	.	.	4.ee\	wień-	l'o-	.	.	.	.	.
.	8e/J 8g# 8b	.	.	.	.	.	.	.	.	.	.
4EE/ 4BB 4E	8B/L 8d 8e	.	.	.	.	.	.	.	.	.	.
.	8e/J 8g# 8b	.	.	8b\	-ce	-lez-	.	.	.	.	.
=47	=47	=47	=47	=47	=47	=47	=47	=47	=47	=47	=47
4AA/ 4E	8A/L 8c# 8e	.	.	2cc#\	pleść,	-zar,	.	2.ryy	.	.	.
.	8e/J 8a 8cc#	.	.	.	.	.	.	.	.	.	.
4AA\ 4E 4A	8c#/L 8e 8a	.	.	.	.	.	.	.	.	.	.
.	8e/J 8a 8cc#	.	.	.	.	.	.	.	.	.	.
4AA\ 4E 4A	8e/L 8a 8cc#	.	.	4ee\	A	e	.	.	.	.	.
.	8e/J 8a 8cc# 8ee	.	.	.	.	.	.	.	.	.	.
!!LO:LB:g=original	!	!	!	!	!	!	!	!	!	!	!
=48	=48	=48	=48	=48	=48	=48	=48	=48	=48	=48	=48
4C#\ 4E 4G#	8e/L 8g# 8cc#	.	.	2gg#\	z wień-	gli	.	2.ryy	.	.	.
.	8e/J 8g# 8ee	.	.	.	.	.	.	.	.	.	.
4C#\ 4E 4G#	8e/L 8g# 8cc#	.	.	.	.	.	.	.	.	.	.
.	8e/J 8g# 8ee	.	.	.	.	.	.	.	.	.	.
4C#\ 4E 4G#	8e/L 8g# 8cc#	.	.	4ee\	-cem	sma-	.	.	.	.	.
.	8e/J 8g# 8ee	.	.	.	.	.	.	.	.	.	.
=49	=49	=49	=49	=49	=49	=49	=49	=49	=49	=49	=49
4C#\ 4E 4A	8e/L 8a 8cc#	.	.	2cc#\	ży-	-glian-	.	2.ryy	.	.	.
.	8e/J 8a 8cc# 8ee	.	.	.	.	.	.	.	.	.	.
4C#\ 4E 4A	8e/L 8a 8cc#	.	.	.	.	.	.	.	.	.	.
.	8e/J 8a 8cc# 8ee	.	.	.	.	.	.	.	.	.	.
4C#\ 4E 4A	8e/L 8a 8cc#	.	.	8ee\	-cie	-ti	.	.	.	.	.
.	8e/J 8a 8cc# 8ee	.	.	8ee\	za	co-	.	.	.	.	.
=50	=50	=50	=50	=50	=50	=50	=50	=50	=50	=50	=50
4C#\ 4E 4G# 4c#	8e/L 8g#	.	.	(4.gg#\	jej	-lor	.	2.ryy	.	.	.
.	8e/J 8g# 8ee	.	.	.	.	.	.	.	.	.	.
4C#\ 4E 4c#	8e/L 8g#	.	.	.	.	.	.	.	.	.	.
.	8e/J 8g# 8ee	.	.	8ff#\)	.	.	.	.	.	.	.
4C#\ 4E 4G# 4c#	8e/L 8g#	.	.	8ee\	ży-	sai	.	.	.	.	.
.	8e/J 8g# 8ee	.	.	8ff#\	-cie	do-	.	.	.	.	.
=51	=51	=51	=51	=51	=51	=51	=51	=51	=51	=51	=51
4BB\ 4E 4B	8d/L 8e 8g#	.	.	2ee\	niść,	-nar.	.	2.ryy	.	.	.
.	8e/J 8g# 8dd	.	.	.	.	.	.	.	.	.	.
4BB\ 4E 4B	8d/L 8e 8g#	.	.	.	.	.	.	.	.	.	.
.	8e/J 8g# 8b	.	.	.	.	.	.	.	.	.	.
4EE/ 4E	8d/L 8e 8g# 8b	.	.	4ee\	To	Da	.	.	.	.	.
.	8g#/J 8b 8ee	.	.	.	.	.	.	.	.	.	.
=52	=52	=52	=52	=52	=52	=52	=52	=52	=52	=52	=52
!	!	!	!	!	!	!	!LO:DY:a	!	!	!	!
4AA\ 4E 4A	8c#/L 8e 8a	.	.	2aa\	w ziem-	stral	f	2.ryy	.	.	.
.	8e/J 8a 8cc#	.	.	.	.	.	.	.	.	.	.
4C#\ 4E 4A	8c#/L 8e	.	.	.	.	.	.	.	.	.	.
.	8e/J 8a 8cc#	.	.	.	.	.	.	.	.	.	.
8E\L 8A	8c#/L 8e	.	.	4ee\	-skiej	d'a-	.	.	.	.	.
16r	8e/J 8a 8cc#	.	.	.	.	.	.	.	.	.	.
16A\Jk	.	.	.	.	.	.	.	.	.	.	.
!!LO:LB:g=original	!	!	!	!	!	!	!	!	!	!	!
=53	=53	=53	=53	=53	=53	=53	=53	=53	=53	=53	=53
8c#\L	8e/L 8a	.	.	2cc#\	czci	-mor	.	2.r	.	.	.
16rE	8e/J 8a 8ee	.	.	.	.	.	.	.	.	.	.
16B\K	.	.	.	.	.	.	.	.	.	.	.
8A\	8c#/L 8e	.	.	.	.	.	.	.	.	.	.
16rC	8e/J 8a 8cc#	.	.	.	.	.	.	.	.	.	.
16G#\K	.	.	.	.	.	.	.	.	.	.	.
8F#\	8A/L 8c# 8e	.	.	4a/	Nie-	fai	.	.	.	.	.
16rC	8c#/J 8e 8a	.	.	.	.	.	.	.	.	.	.
16E\Jk	.	.	.	.	.	.	.	.	.	.	.
=54	=54	=54	=54	=54	=54	=54	=54	=54	=54	=54	=54
4.D\	4.f#^/ 4.a 4.b	.	.	[2.ff#\	-biań-	san-	.	2.r	.	.	.
8C#/	8e/ 8a 8cc#	.	.	.	.	.	.	.	.	.	.
8BB/	8f#/ 8a 8dd	.	.	.	.	.	.	.	.	.	.
8r	8r	.	.	.	.	.	.	.	.	.	.
=55	=55	=55	=55	=55	=55	=55	=55	=55	=55	=55	=55
4EE^>/ 4BB 4E	4G#/ 4B 4d 4e	.	.	8.ff#\]	.	.	.	2.r	.	.	.
.	.	.	.	16ee\	-ska	-gui-	.	.	.	.	.
!	!LO:TX:b:t=rall.	!	!	!LO:TX:i:a:t=rall.	!	!	!	!	!	!	!
4EE^>/ 4BB 4E	4A/ 4B 4d 4f#	.	.	8ff#\	cześć	-nar	.	.	.	.	.
.	.	.	.	16r	.	.	.	.	.	.	.
.	.	.	.	16ee\	nie-	i	.	.	.	.	.
.	.	.	.	8qgg#/	.	.	.	.	.	.	.
4EE^>/ 4BB 4E	4B/ 4d 4e 4g#	.	.	8.ff#\	-biań-	gio-	.	.	.	.	.
.	.	.	.	16ee\	-ska	-vin	.	.	.	.	.
=56	=56	=56	=56	=56	=56	=56	=56	=56	=56	=56	=56
*^	*	*	*	*	*	*	*	*	*	*	*
!	!	!LO:TX:i:b:t=Q molto espress.	!	!	!	!	!	!	!	!	!	!
!	!	!LO:TX:a:t=V-no Solo	!	!LO:HP:a	!	!	!	!	!	!	!	!
*	*Xtremolo	*	*	*	*	*	*	*	*	*	*	*
2.C#/ 2.E	8AA\L	8.A/L	.	<	2cc#\	cześć.	cor.	.	4r	.	.	.
.	8AA\	.	.	.	.	.	.	.	.	.	.	.
.	.	16B/Jk	.	.	.	.	.	.	.	.	.	.
!	!	!LO:TUP:b:problem:klamra łukowa	!	!	!	!	!	!	!	!	!	!
.	8AA\	20c#/LL	.	.	.	.	.	.	(4ee\	Nie-	Cie-	.
.	.	20e/	.	.	.	.	.	.	.	.	.	.
.	.	20a/	.	.	.	.	.	.	.	.	.	.
.	8AA\	.	.	.	.	.	.	.	.	.	.	.
.	.	20cc#/	.	.	.	.	.	.	.	.	.	.
.	.	20ee/JJ	.	.	.	.	.	.	.	.	.	.
.	8AA\	(8.ccc#^\L	.	[	4r	.	.	.	8a/)	-ba!	-lo!	.
.	8AA\J	.	.	.	.	.	.	.	8r	.	.	.
.	.	32bb\LL	.	.	.	.	.	.	.	.	.	.
.	.	32aa\JJJ)	.	.	.	.	.	.	.	.	.	.
!!LO:LB:g=original	!	!	!	!	!	!	!	!	!	!	!	!
=57	=57	=57	=57	=57	=57	=57	=57	=57	=57	=57	=57	=57
2.D/ 2.F#	8AA\L	(4gg#\	.	.	2.r	.	.	.	8.g#/	twój	il	.
.	8AA\	.	.	.	.	.	.	.	.	.	.	.
.	.	.	.	.	.	.	.	.	16f#/	że	tuo o-	.
.	8AA\	(16ff#\LL)	.	.	.	.	.	.	4f#/	to	-ra-	.
.	.	16ff#\	.	.	.	.	.	.	.	.	.	.
.	8AA\	16gg#\	.	.	.	.	.	.	.	.	.	.
.	.	16ff#\JJ	.	.	.	.	.	.	.	.	.	.
.	8AA\	16ee#X\LL	.	.	.	.	.	.	8a/	do	-col	.
.	.	16ff#\	.	.	.	.	.	.	.	.	.	.
.	8AA\J	16gg#\	.	.	.	.	.	.	8dd\	mnie	non	.
.	.	16aa\JJ)	.	.	.	.	.	.	.	.	.	.
=58	=58	=58	=58	=58	=58	=58	=58	=58	=58	=58	=58	=58
2.D/ 2.Fn	8AA\L	(4aa\	.	.	2.r	.	.	.	2dd\	głos?	e?	.
.	8AA\	.	.	.	.	.	.	.	.	.	.	.
.	8AA\	16dd\)	.	.	.	.	.	.	.	.	.	.
*	*	*Xtremolo	*	*	*	*	*	*	*	*	*	*
.	.	(16dd\LL	.	.	.	.	.	.	.	.	.	.
.	8AA\	16ee\	.	.	.	.	.	.	.	.	.	.
.	.	16dd\JJ	.	.	.	.	.	.	.	.	.	.
.	8AA\	16cc#\LL	.	.	.	.	.	.	4r	.	.	.
.	.	16dd\	.	.	.	.	.	.	.	.	.	.
.	8AA\J	16ee\	.	.	.	.	.	.	.	.	.	.
.	.	16ffn\JJ)	.	.	.	.	.	.	.	.	.	.
=59	=59	=59	=59	=59	=59	=59	=59	=59	=59	=59	=59	=59
*	*	*^	*	*	*	*	*	*	*	*	*	*
2.E/	8AA\L	2g#/	2.d\	.	.	2.r	.	.	.	8.cc#\	W ziem-	Que-	.
.	8AA\	.	.	.	.	.	.	.	.	.	.	.	.
.	.	.	.	.	.	.	.	.	.	16b\	-skiej	-sto	.
.	8AA\	.	.	.	.	.	.	.	.	8.cc#\	czci	can-	.
.	8AA\	.	.	.	.	.	.	.	.	.	.	.	.
.	.	.	.	.	.	.	.	.	.	16b\	nie-	-to e	.
.	8AA\	(8.a/L	.	.	.	.	.	.	.	8.cc#\	-biań-	no-	.
.	8AA\J	.	.	.	.	.	.	.	.	.	.	.	.
.	.	16ee/Jk)	.	.	.	.	.	.	.	16b\	-ska	-to a	.
=60	=60	=60	=60	=60	=60	=60	=60	=60	=60	=60	=60	=60	=60
(8.E/L	8AA\L	([4ee^/	2.c#\	.	.	2ee\	Ach	Ter-	.	[4ee\	cześć	me!	.
.	8AA\	.	.	.	.	.	.	.	.	.	.	.	.
16Fn/K	.	.	.	.	.	.	.	.	.	.	.	.	.
8.E/	8AA\	16ee/LL]	.	.	.	.	.	.	.	8ee\]	.	.	.
.	.	16cc#/	.	.	.	.	.	.	.	.	.	.	.
.	8AA\	16a/	.	.	.	.	.	.	.	8r	.	.	.
16F/K	.	16e/JJ	.	.	.	.	.	.	.	.	.	.	.
8.E/	8AA\	16c#/LL	.	.	.	8.cc#\	w ziem-	-re-	.	4r	.	.	.
.	.	16e/	.	.	.	.	.	.	.	.	.	.	.
.	8AA\J	16a/	.	.	.	.	.	.	.	.	.	.	.
16F/Jk)	.	16cc#/JJ)	.	.	.	16a/	-skiej	-no a-	.	.	.	.	.
!!LO:PB:g=original	!	!	!	!	!	!	!	!	!	!	!	!	!
=61	=61	=61	=61	=61	=61	=61	=61	=61	=61	=61	=61	=61	=61
2.E/ 2.G#	8AA\L	(8.cc#/L	2.d\	.	.	8.dd\	czci	-mor	.	8.cc#\	tak!	si!	.
.	8AA\	.	.	.	.	.	.	.	.	.	.	.	.
.	.	16b/K	.	.	.	16dd\	nie-	di-	.	16b\	to	ter-	.
.	8AA\	8.cc#/	.	.	.	4.dd\	-biań-	-schiu-	.	8.cc#\	w ziem-	-re-	.
.	8AA\	.	.	.	.	.	.	.	.	.	.	.	.
.	.	16b/Jk	.	.	.	.	.	.	.	16b\	-skiej	-no a-	.
.	8AA\	16cc#/LL	.	.	.	.	.	.	.	8.cc#\	czci	-mor	.
.	.	16b/	.	.	.	.	.	.	.	.	.	.	.
.	8AA\J	16g#/	.	.	.	8dd\	-ska	-de il	.	.	.	.	.
.	.	16e/JJ)	.	.	.	.	.	.	.	16b\	nie-	di-	.
*	*	*v	*v	*	*	*	*	*	*	*	*	*	*
=62	=62	=62	=62	=62	=62	=62	=62	=62	=62	=62	=62	=62
(8.E/L	8AA\L	2.A^/ 2.c# 2.e	.	.	4cc#\	cześć!	ciel!	.	[2ff#\	-biań-	-schiu-	.
.	8AA\	.	.	.	.	.	.	.	.	.	.	.
16F#X/K	.	.	.	.	.	.	.	.	.	.	.	.
8.E/	8AA\	.	.	.	4r	.	.	.	.	.	.	.
.	8AA\	.	.	.	.	.	.	.	.	.	.	.
16F#/K	.	.	.	.	.	.	.	.	.	.	.	.
8E/	8AA\	.	.	.	4r	.	.	.	16ff#\LL]	.	.	.
.	.	.	.	.	.	.	.	.	16ee\JJ	.	.	.
8E/J)	8AA\J	.	.	.	.	.	.	.	16dd\LL	-ska	-de	.
.	.	.	.	.	.	.	.	.	16cc#\JJ	.	il	.
=63	=63	=63	=63	=63	=63	=63	=63	=63	=63	=63	=63	=63
!	!	!	!	!	!	!	!	!	!LO:TX:a:i:t=molto rallent.	!	!	!
2.E;/	4EE\	8B/L 8d 8e	.	.	2.r;	.	.	.	8cc#\	cześć,	ciel,	.
.	.	8B^>/ 8d 8e	.	.	.	.	.	.	16r	.	.	.
.	.	.	.	.	.	.	.	.	16b\	to	l'a-	.
!	!	!LO:TX:b:i:t=rallent.	!	!	!	!	!	!	!	!	!	!
.	2ryy	8A^>/ 8c# 8e#X	.	.	.	.	.	.	8.dd\	cześć!	-mor	.
.	.	8A#X^>/ 8d 8f#	.	.	.	.	.	.	.	.	.	.
.	.	.	.	.	.	.	.	.	16cc#\	nie-	di-	.
.	.	8B^>/ 8d 8f##X	.	.	.	.	.	.	8.ee;\	-biań-	-schiu-	.
.	.	8B^>;/J 8d 8g#	.	.	.	.	.	.	.	.	.	.
.	.	.	.	.	.	.	.	.	32dd\LLL	-ska	-de	.
.	.	.	.	.	.	.	.	.	32b\JJJ	.	il	.
*v	*v	*	*	*	*	*	*	*	*	*	*	*
=64	=64	=64	=64	=64	=64	=64	=64	=64	=64	=64	=64
8AA\ 8E	8A/ 8c# 8a	.	<	2.r	.	.	.	4a/	cześć!	ciel!	.
8C#::\L 8E::	8A::/L	.	.	.	.	.	.	.	.	.	.
8E::\	8A::/ 8c#::	.	.	.	.	.	.	4r	.	.	.
8A::\	8c#::/ 8e::	.	.	.	.	.	.	.	.	.	.
8E::\ 8A:: 8c#::	8e::/ 8a::	.	.	.	.	.	.	4r	.	.	.
8C#::\J 8E:: 8A:: 8c#::	8e::/J 8a:: 8cc#::	.	[	.	.	.	.	.	.	.	.
!!LO:LB:g=origina	!	!	!	!	!	!	!	!	!	!	!
=65	=65	=65	=65	=65	=65	=65	=65	=65	=65	=65	=65
4AA::\ 4C#:: 4E:: 4A::	8e::/L 8a:: 8cc#:: 8ee::	.	fp	2ee\	Słoń-	So-	.	4r	.	.	.
.	8e/J 8a 8cc#	.	.	.	.	.	.	.	.	.	.
4AA\ 4E 4A	8c#/L 8e	.	.	.	.	.	.	4r	.	.	.
.	8e/J 8a 8cc#	.	.	.	.	.	.	.	.	.	.
4AA\ 4E 4A	8c#/L 8e	.	.	8.cc#\	-ce	-le,	.	4ee\	Ach!	Quel	.
.	8e/J 8a 8cc#	.	.	.	.	.	.	.	.	.	.
.	.	.	.	16cc#\	wspa-	del	.	.	.	.	.
=66	=66	=66	=66	=66	=66	=66	=66	=66	=66	=66	=66
4AA\ 4E 4A	8c#/L 8e	.	fp	2a/	-nia-	mon-	.	2aa\	w pie-	can-	.
.	8e/J 8a 8cc#	.	.	.	.	.	.	.	.	.	.
4AA\ 4E 4A	8c#/L 8e	.	.	.	.	.	.	.	.	.	.
.	8e/J 8a 8cc#	.	.	.	.	.	.	.	.	.	.
4AA\ 4E 4A	8c#/L 8e	.	.	8cc#/L	-łe,	-do	.	4ee\	-śni	-to in-	.
.	8e/J 8a 8cc#	.	.	8a/J	.	.	.	.	.	.	.
=67	=67	=67	=67	=67	=67	=67	=67	=67	=67	=67	=67
4AA\ 4E 4A	8c#/L 8e 8a	.	.	2ee\	twój	lu-	.	8.cc#\	tej	-ter	.
.	8e/J 8a 8cc#	.	.	.	.	.	.	.	.	.	.
.	.	.	.	.	.	.	.	16b\	o	un	.
4AA\ 4E 4A	8c#/L 8e 8a	.	.	.	.	.	.	8.a/	jak	sen-	.
.	8e/J 8a 8cc#	.	.	.	.	.	.	.	.	.	.
.	.	.	.	.	.	.	.	16g#/	że	-so	.
4AA\ 4F# 4A	8d/L 8f# 8a	.	.	8dd\	świę-	-ce e	.	8f#/	się	de-	.
.	8f#/J 8a 8dd	.	.	8ff#\	-ty	te-	.	8dd\	u-	-sta	.
=68	=68	=68	=68	=68	=68	=68	=68	=68	=68	=68	=68
4AA\ 4E 4A	8c#/L 8e 8a	.	.	2ee\	blask	-por,	.	8.cc#\	-śmie-	lu-	.
.	8e/J 8a 8cc#	.	.	.	.	.	.	.	.	.	.
.	.	.	.	.	.	.	.	16dd\	-cha	-sin-	.
4AA\ 4E 4A	8c#/L 8e 8a	.	.	.	.	.	.	4ee\	los!	-ghier!	.
.	8e/J 8a 8cc#	.	.	.	.	.	.	.	.	.	.
4AA\ 4E 4A	8c#/L 8e 8a	.	.	4ee\	W mi-	d'un	.	4r	.	.	.
.	8e/J 8a 8cc#	.	.	.	.	.	.	.	.	.	.
!!LO:LB:g=original	!	!	!	!	!	!	!	!	!	!	!
=69	=69	=69	=69	=69	=69	=69	=69	=69	=69	=69	=69
4DD/ 4D	8B/L 8e 8g#	.	.	4ff#\	-ło-	rag-	.	4r	.	.	.
.	8e/J 8g# 8b	.	.	.	.	.	.	.	.	.	.
4DD/ 4D	8B/L 8e 8g#	.	.	8ee\	-ści	-gio	.	4r	.	.	.
.	8e/J 8g# 8b	.	.	8dd\	ma	fe-	.	.	.	.	.
4DD/ 4D	8B/L 8e 8g#	.	.	8b\	chwa-	-con-	.	4e/	Tym	D'a-	.
.	8e/J 8g# 8b 8ee	.	.	8g#/	-łę	-do a	.	.	.	.	.
=70	=70	=70	=70	=70	=70	=70	=70	=70	=70	=70	=70
4CC#/ 4C#	8A/L 8e	.	.	2a/	naj-	noi	.	4.ee\	co	-mor	.
.	8c#/J 8e 8a	.	.	.	.	.	.	.	.	.	.
4AA\ 4E 4A	8c#/L 8e	.	.	.	.	.	.	.	.	.	.
.	8e/J 8a 8cc#	.	.	.	.	.	.	8cc#\	ko-	la	.
4AA\ 4E 4A	8c#/L 8e	.	.	8cc#\L	-wznio-	con-	.	8b\	-cha-	leg-	.
.	8e/J 8a 8cc# 8ee	.	.	8ee\J	.	.	.	8a/	-ją	-ge ei	.
=71	=71	=71	=71	=71	=71	=71	=71	=71	=71	=71	=71
4BB\ 4E 4G#	8B/L 8e 8g#	.	.	2ee\	-ślej-	-ce-	.	8.g#/	Co	mi	.
.	8e/J 8g# 8b	.	.	.	.	.	.	.	.	.	.
.	.	.	.	.	.	.	.	16a/	ko-	ren-	.
4BB\ 4E 4G#	8B/L 8e 8g#	.	.	.	.	.	.	4b\	-cha-	-dea	.
.	8e/J 8g# 8b	.	.	.	.	.	.	.	.	.	.
4BB\ 4F#	8B/L 8d#X 8a	.	.	8dd#X\	-szą	-di il	.	4b\	-ją	pa-	.
.	8d#/J 8f# 8b	.	.	8b\	z twch	fa-	.	.	.	.	.
=72	=72	=72	=72	=72	=72	=72	=72	=72	=72	=72	=72
4E\ 4G#	8B/L 8e 8g#	.	.	2ee\	łask.	-vor.	.	4cc#\	wiecz-	-le-	.
.	8e/J 8g# 8b	.	.	.	.	.	.	.	.	.	.
4E\ 4G#	8B/L 8e 8g#	.	<	.	.	.	.	8b\	-nie.	-se.	.
.	8e/J 8g# 8b	.	.	.	.	.	.	16e/LL	I	Ed	.
.	.	.	.	.	.	.	.	16f#/JJ	.	.	.
4E\ 4G#	8B/L 8e 8g#	.	.	4r	.	.	.	16g#/LL	ja	e-	.
.	.	.	.	.	.	.	.	16a/JJ	.	.	.
.	8e/J 8g# 8b	.	[	.	.	.	.	16b\LL	zmu-	-vrei	.
.	.	.	.	.	.	.	.	16cc#\JJ	.	.	.
!!LO:PB:g=original	!	!	!	!	!	!	!	!	!	!	!
=73	=73	=73	=73	=73	=73	=73	=73	=73	=73	=73	=73
*	*	*	*	*^	*	*	*	*	*	*	*
4EE/ 4BB 4E	8B/L 8e 8g#	.	.	2ee\	2ryy	Na	Tu al-	.	4dd\	-szo-	co-	.
.	8e/J 8g# 8b	.	.	.	.	.	.	.	.	.	.	.
4E\ 4B	8e/L 8g# 8b	.	.	.	.	.	.	.	4b\	-na	-re	.
.	8g#/J 8b 8ee	.	.	.	.	.	.	.	.	.	.	.
4E\ 4B	8e/L 8g#	.	.	8b/L	8b\	ko-	-le	.	8.r	.	.	.
.	8e/J 8g# 8b	.	.	8cc#/J	8cc#\	.	co-	.	.	.	.	.
.	.	.	.	.	.	.	.	.	16a/	mam	di	.
=74	=74	=74	=74	=74	=74	=74	=74	=74	=74	=74	=74	=74
4EE/ 4BB 4E	8B/L 8e 8g#	.	sf	2dd\	2ryy	-chan-	-rol-	.	8.a/	zdra-	rin-	.
.	8e/J 8g# 8b	.	.	.	.	.	.	.	.	.	.	.
.	.	.	.	.	.	.	.	.	16g#/	-dzić	-ne-	.
4E\ 4B	8e/L 8g#	.	.	.	.	.	.	.	8b\	go	-gar	.
.	8e/J 8g# 8b	.	.	.	.	.	.	.	8r	.	.	.
4E\ 4B	8e/L 8g#	.	.	8cc#/L	8cc#\	-ki	-le	.	4e/	Dwa	quei	.
.	8e/J 8g# 8b	.	.	8dd/J	8dd\	.	dei	.	.	.	.	.
*	*	*	*	*v	*v	*	*	*	*	*	*	*
=75	=75	=75	=75	=75	=75	=75	=75	=75	=75	=75	=75
4EE/ 4BB 4E	8e/L 8g# 8b	.	.	4ff#\	skroń	fior	.	8d/	ser-	che ad	.
.	8e/J 8g# 8b 8dd	.	.	.	.	.	.	8d/	-ca	a-	.
4EE/ 4BB 4E	8B/L 8e 8g#	.	.	4ee\	wień-	l'o-	.	4.e/	o-	-mar	.
.	8e/J 8g# 8b	.	.	.	.	.	.	.	.	.	.
4EE/ 4BB 4E	8B/L 8d 8e	.	.	4b\	-ce	-les-	.	.	.	.	.
.	8e/J 8g# 8b	.	.	.	.	.	.	8d/	-pleść	m'ap-	.
=76	=76	=76	=76	=76	=76	=76	=76	=76	=76	=76	=76
4AA/ 4E	8A/L 8c# 8e	.	.	2cc#\	pleść	-zar,	.	(8.c#/L	w cier-	-pre-	.
.	8e/J 8a 8cc#	.	.	.	.	.	.	.	.	.	.
.	.	.	.	.	.	.	.	32e/LL	.	.	.
.	.	.	.	.	.	.	.	32a/JJJ)	.	.	.
4AA\ 4E 4A	8c#/L 8e 8a	.	.	.	.	.	.	4cc#\	-nie?	-se?	.
.	8e/J 8a 8cc#	.	.	.	.	.	.	.	.	.	.
4AA\ 4E 4A	8e/L 8a 8cc#	.	.	4ee\	I	e	.	4r	.	.	.
.	8e/J 8a 8cc# 8ee	.	.	.	.	.	.	.	.	.	.
!!LO:LB:g=original	!	!	!	!	!	!	!	!	!	!	!
=77	=77	=77	=77	=77	=77	=77	=77	=77	=77	=77	=77
4C#\ 4E 4G#	8e/L 8g# 8cc#	.	.	2gg#\	z wień-	gli	.	2.r	.	.	.
.	8e/J 8g# 8ee	.	.	.	.	.	.	.	.	.	.
4C#\ 4E 4G#	8e/L 8g# 8cc#	.	.	.	.	.	.	.	.	.	.
.	8e/J 8g# 8ee	.	.	.	.	.	.	.	.	.	.
4C#\ 4E 4G#	8e/L 8g# 8cc#	.	.	4ee\	-cem	sma-	.	.	.	.	.
.	8e/J 8g# 8ee	.	.	.	.	.	.	.	.	.	.
=78	=78	=78	=78	=78	=78	=78	=78	=78	=78	=78	=78
4C#\ 4E 4A	8e/L 8a 8cc#	.	.	2cc#\	ży-	-glian-	.	8r	.	.	.
.	8e/J 8a 8cc# 8ee	.	.	.	.	.	.	8a/	To	In-	.
4C#\ 4E 4A	8e/L 8a 8cc#	.	.	.	.	.	.	(4..cc#^\	zbro-	-fa-	.
.	8e/J 8a 8cc# 8ee	.	.	.	.	.	.	.	.	.	.
4C#\ 4E 4A	8e/L 8a 8cc#	.	.	8ee\	-cie	-ti	.	.	.	.	.
.	8e/J 8a 8cc# 8ee	.	.	8ee\	za	co-	.	.	.	.	.
.	.	.	.	.	.	.	.	32b/LLL	.	.	.
.	.	.	.	.	.	.	.	32a/JJJ)	.	.	.
=79	=79	=79	=79	=79	=79	=79	=79	=79	=79	=79	=79
4C#\ 4E 4G# 4c#	8e/L 8g#	.	.	(4.gg#\	jej	-lor	.	8g#/	-dnia!	-mia!	.
.	8e/J 8g# 8ee	.	.	.	.	.	.	8r	.	.	.
4C#\ 4E 4G# 4c#	8e/L 8g#	.	.	.	.	.	.	4.g#/	Słoń-	So-	.
.	8e/J 8g# 8ee	.	.	8ff#\)	.	.	.	.	.	.	.
4C#\ 4E 4G# 4c#	8e/L 8g#	.	.	8ee\	ży-	sai	.	.	.	.	.
.	8e/J 8g# 8ee	.	.	8ff#\	-cie	do-	.	8g#/	-ce	-le as-	.
=80	=80	=80	=80	=80	=80	=80	=80	=80	=80	=80	=80
4BB\ 4E 4B	8d/L 8e 8g#	.	.	2ee\	nieść,	-nar.	.	16g#/LL	o-	-si-	.
.	.	.	.	.	.	.	.	16a/JJ	.	.	.
.	8e/J 8g# 8dd	.	.	.	.	.	.	16a#X/LL	-chroń	-sti-	.
.	.	.	.	.	.	.	.	16b/JJ	.	.	.
4BB\ 4E 4B	8d/L 8e 8g#	.	.	.	.	.	.	4e/	mnie	-mi!	.
.	8e/J 8g# 8b	.	.	.	.	.	.	.	.	.	.
4EE/ 4E	8d/L 8e 8g# 8b	.	.	4ee\	To	Da	.	4r	.	.	.
.	8g#/J 8b 8ee	.	.	.	.	.	.	.	.	.	.
=81	=81	=81	=81	=81	=81	=81	=81	=81	=81	=81	=81
4AA\ 4E 4A	8c#/L 8e 8a	.	.	2aa\	w ziem-	stral	.	4r	.	.	.
.	8e/J 8a 8cc#	.	<	.	.	.	.	.	.	.	.
4C#\ 4E 4A	8c#/L 8e	.	.	.	.	.	.	4.cc#\	słoń-	So-	.
.	8e/J 8a 8cc#	.	.	.	.	.	.	.	.	.	.
8E\L 8A	8c#/L 8e	.	.	4ee\	-skiej	d'a-	.	.	.	.	.
16r	8e/J 8a 8cc#	.	[	.	.	.	.	8a/	-ce	-le as-	.
16A\Jk	.	.	.	.	.	.	.	.	.	.	.
!!LO:LB:g=original	!	!	!	!	!	!	!	!	!	!	!
=82	=82	=82	=82	=82	=82	=82	=82	=82	=82	=82	=82
8c#\L	8e/L 8a	.	>	2cc#\	czci	-mor	.	(4.ee\	o-	-si-	.
16rE	8e/J 8a 8ee	.	.	.	.	.	.	.	.	.	.
16B\K	.	.	.	.	.	.	.	.	.	.	.
8A\	8c#/L 8e	.	.	.	.	.	.	.	.	.	.
16rE	8e/J 8a 8cc#	.	.	.	.	.	.	8cc#\)	.	.	.
16G#\K	.	.	.	.	.	.	.	.	.	.	.
8F#\	8A/L 8c# 8e	.	]	4a/	nie-	fai	.	8a/L	-chroń	-sti-	.
16rC	8c#/J 8e 8a	.	.	.	.	.	.	8e/J	.	.	.
16E\Jk	.	.	.	.	.	.	.	.	.	.	.
=83	=83	=83	=83	=83	=83	=83	=83	=83	=83	=83	=83
4.D\	4.f#^/ 4.a 4.b	.	.	[2.ff#\	-biań-	san-	.	(16f#/LL	mnie	-mi,	.
.	.	.	.	.	.	.	.	16g#/JJ	.	.	.
!	!	!	!	!	!	!	!	!	!	!	!LO:DY:a
.	.	.	.	.	.	.	.	16a/LL	i	di	<
.	.	.	.	.	.	.	.	16a#X/JJ	.	.	.
.	.	.	.	.	.	.	.	16b\LL	u-	for-	.
.	.	.	.	.	.	.	.	16cc#\JJ	.	.	.
8C#/	8e/ 8a 8cc#	.	.	.	.	.	.	16dd\LL	-zbrój	-za	.
.	.	.	.	.	.	.	.	16ee\JJ	.	il	[
8BB/	8f#/ 8a 8dd	.	.	.	.	.	.	16ff#\LL	w sta-	de-	.
.	.	.	.	.	.	.	.	16cc#\JJ	.	.	.
.	.	.	.	.	.	.	.	8qee/	.	.	.
8r	8r	.	.	.	.	.	.	16dd\LL	-łość	-bol	.
.	.	.	.	.	.	.	.	16b\JJ	.	.	.
=84	=84	=84	=84	=84	=84	=84	=84	=84	=84	=84	=84
4EE/ 4BB 4E	4G#/ 4B 4e	.	.	8.ff#\]	.	.	.	8a/)	trwoż-	cor	.
!	!	!	!	!	!	!	!	!LO:TX:i:a:t=senza rall.	!	!	!
.	.	.	.	.	.	.	.	8g#/	-ne	a	.
.	.	.	.	16ee\	-ska	-gui-	.	.	.	.	.
!	!LO:TX:i:b:t=senza rall.	!	!	!	!	!	!	!	!	!	!LO:DY:a
4EE/ 4BB 4E	4A/ 4d 4f#	.	.	8ff#\	cześć,	-nar	.	4.dd;\	ser-	rin-	>
.	.	.	.	16r	.	.	.	.	.	.	.
.	.	.	.	16ee\	nie-	i	.	.	.	.	.
.	.	.	.	8qgg#/	.	.	.	.	.	.	.
4EE;/ 4BB 4E	4B;/ 4d 4e 4g#	.	.	8.ff#;\	-biań-	gio-	.	.	.	.	.
.	.	.	.	.	.	.	.	8d/	-ce	-fran-	]]
.	.	.	.	16ee\	-ska	-vin	.	.	.	.	.
=85	=85	=85	=85	=85	=85	=85	=85	=85	=85	=85	=85
16AA\LL	2a^\ 2cc# 2ee 2aa	.	ff	4cc#\	cześć!	cor.	.	4c#/	to.	-car.	.
16C#\	.	.	.	.	.	.	.	.	.	.	.
16E\	.	.	.	.	.	.	.	.	.	.	.
16A\JJ	.	.	.	.	.	.	.	.	.	.	.
8AA\L	.	.	.	4r	.	.	.	4r	.	.	.
8A\	.	.	.	.	.	.	.	.	.	.	.
8AA\	8.a\L 8.dd 8.ffn 8.aa	.	.	4r	.	.	.	4r	.	.	.
8A\J	.	.	.	.	.	.	.	.	.	.	.
.	16b\Jk 16bb	.	.	.	.	.	.	.	.	.	.
!!LO:LB:g=original	!	!	!	!	!	!	!	!	!	!	!
=86	=86	=86	=86	=86	=86	=86	=86	=86	=86	=86	=86
16AA\LL	2cc#^\ 2ee 2aa 2ccc#	.	.	2.r	.	.	.	2.ryy	.	.	.
16C#\	.	.	.	.	.	.	.	.	.	.	.
16E\	.	.	.	.	.	.	.	.	.	.	.
16A\JJ	.	.	.	.	.	.	.	.	.	.	.
8AA\L	.	.	.	.	.	.	.	.	.	.	.
8A\	.	.	.	.	.	.	.	.	.	.	.
8AA\	8.a\L 8.dd 8.ffn 8.aa	.	.	.	.	.	.	.	.	.	.
8A\J	.	.	.	.	.	.	.	.	.	.	.
.	16b\Jk 16bb	.	.	.	.	.	.	.	.	.	.
=87	=87	=87	=87	=87	=87	=87	=87	=87	=87	=87	=87
4AA\ 4C# 4E 4A	8cc#\ 8ee 8aa 8ccc#	.	>	2.r	.	.	.	2.ryy	.	.	.
.	(4gg#\ 4aa	.	.	.	.	.	.	.	.	.	.
4AA\ 4C# 4E 4A	.	.	.	.	.	.	.	.	.	.	.
.	4ee\	.	.	.	.	.	.	.	.	.	.
4AA\ 4C# 4E 4A	.	.	.	.	.	.	.	.	.	.	.
.	[8cc#\	.	.	.	.	.	.	.	.	.	.
=88	=88	=88	=88	=88	=88	=88	=88	=88	=88	=88	=88
4AA\ 4C# 4E 4A	8cc#\]	.	.	2.r	.	.	.	2.ryy	.	.	.
.	4a/	.	.	.	.	.	.	.	.	.	.
4AA\ 4C# 4E 4A	.	.	.	.	.	.	.	.	.	.	.
.	4e/	.	.	.	.	.	.	.	.	.	.
4AA\ 4C# 4E 4A	.	.	.	.	.	.	.	.	.	.	.
.	8c#/)	.	]]	.	.	.	.	.	.	.	.
=89	=89	=89	=89	=89	=89	=89	=89	=89	=89	=89	=89
*^	*^	*	*	*	*	*	*	*	*	*	*
2.Fn/	(8.AA\L	[2.d/	[2.B\	.	fp	2.r	.	.	.	2.ryy	.	.	.
.	16GG#\K	.	.	.	.	.	.	.	.	.	.	.	.
.	8.AA\	.	.	.	.	.	.	.	.	.	.	.	.
.	16GG#\K	.	.	.	.	.	.	.	.	.	.	.	.
.	8.AA\	.	.	.	.	.	.	.	.	.	.	.	.
.	16GG#\Jk)	.	.	.	.	.	.	.	.	.	.	.	.
=90	=90	=90	=90	=90	=90	=90	=90	=90	=90	=90	=90	=90	=90
2Fn/	(2GGn\	(4d/_	((8.B\L]	.	.	2.r	.	.	.	2.ryy	.	.	.
.	.	.	16A#X\Jk	.	.	.	.	.	.	.	.	.	.
.	.	8.d/L]	2B\)	.	.	.	.	.	.	.	.	.	.
.	.	16c#/K	.	.	.	.	.	.	.	.	.	.	.
[4E/	4GG#X\)	8.e/	.	.	.	.	.	.	.	.	.	.	.
.	.	16d/Jk)	.	.	.	.	.	.	.	.	.	.	.
=91	=91	=91	=91	=91	=91	=91	=91	=91	=91	=91	=91	=91	=91
2.E/]	2.AA\	2.c#;/	2.A\	.	.	2.r	.	.	.	2.ryy	.	.	.
*v	*v	*	*	*	*	*	*	*	*	*	*	*	*
*	*v	*v	*	*	*	*	*	*	*	*	*	*
==	==	==	==	==	==	==	==	==	==	==	==
*-	*-	*-	*-	*-	*-	*-	*-	*-	*-	*-	*-
!!!system-decoration: [(s1,s2)]{(s3,s4)}
!!!RDF**kern: > = above
!!!RDF**kern: < = below
!!!RDF**kern: N = linked
!!!ENC: Berenika Jozajtis
!!!END: 2022-08-27
!!!ENC: Natalia Wrzos
!!!END: 2022-10-05
